X:1
T:ນົກເຂົາຄືນຮັງ
T:ເນື້ອຮ້ອງ & ທຳນອງ : ບຸນທັມ ສຼີພຣົຫ໌ມໄຊຍ໌ ນັກຮ້ອງຕົ້ນສະບັບ : ຈັນຫອມ ປັນຈະພາຣົມຍ໌
T:2017
T:© studiodavong
T:© studiodavong
C:Bountham SIRIPHROMCHAY
Z:© studiodavong
L:1/8
M:4/4
K:Bb
V:1 treble nm="Piano" snm="Pno."
V:1
 z8 || %1
w: |
"Bb"[Q:1/4=60]"^Slow""_Hawaiian Guitar"[Q:1/4=20] !arpeggio!!fermata![B,,B,DFB]2"_Saxo ___________________"[Q:1/4=70] (B/G/F/D/) (G/F/D/C/ F/D/C/B,/) | %2
w: |
"Gm"[Q:1/4=80] !arpeggio![F,B,D]8 | %3
w: |
"Bb""_Hawaiian Guitar"[Q:1/4=18] !arpeggio!!fermata![B,,B,DFB]2"_Saxo _______________________________________"[Q:1/4=60] (F/D/C/B,/ D/[Q:1/4=55]C/B,/G,/ C/B,/G,/F,/ | %4
w: |
"Eb"[Q:1/4=60] B,3) F,"Cm" G,B, C/B,/C/D/ ||"F""^A" !breath!F BFB GFDB, |"Gm" G,4"F" z F,B,D | %7
w: |* ນົກ ເອີຍ ນົກ ເຂົາ ເຄີຍ ເນົາ ຄຽງ|ຄູ່ ແຂ່ງ ກັນ ຂັນ|
"Bb" F3 B"Bb7" DB,DF |"Eb""Cm" G8 |"Eb" z BFB"Gm" GFDF |"Bb" z DCF"D" DCB,G, | %11
w: ຄູ ມຸ່ງ ສູ່ ແຜ່ນ ດິນ ຖິ່ນ|ໄກ|ຝັນ ສ້າງ ວິ ມານ ອັນ ຣື່ນ ຣົມ|ຕາມ ຄຳ ນິ ຍົມ ສັງ ຄົມ ໃໝ່|
"Gm" z F,FD"Cm" CB,CD |"F""Eb""Ebm" F8 |:"Bb""^B" z BFB GFDB, |"Gm" G,4"F" z F,B,D | %15
w: ແຕ່ ຝັນ ມະ ລາຍ ກັບ ກາຍ ເປັນ|ອື່ນ...|ນົກ ນ້ອຍ ພາກ ຮັງ ລຳ ພັງ ໂດດ|ດ່ຽວ ຂາດ ຄູ່ ແລ|
"Bb" F3 B"Bb7" DB,DF |"Eb""Cm" G8 |"Eb" z BFB"Gm" GFDF |"Bb" z DCF"D" DCB,G, | %19
w: ຫຼຽວ ໂນ້ມ ໜ່ຽວ ຈິດ ໃຈ ອວ່າຍ|ຄືນ|ບິນ ເວີ່ນ ເຫີນ ລອຍ ເລີຍ ຫຼົງ ທາງ|ຕົກ ຫຼົ່ມ ຂຸມ ພາງ ພາ ຂົມ ຂື່ນ|
"Gm" z F,G,B,"F" FFDC |"Bb""Eb""Ebm" B,8 ||"Bb""^C" z F,G,B,"F" CDFG |"Eb" G4 BDFG | %23
w: ປີກ ຫັກ ຈຳ ຝືນ ສູ້ ບືນ ຟັນ|ຝ່າ...|ເຣື່ອງ ເກົ່າ ຂ່າວ ລື ໂລກ ຄື ລະ|ຄອນ ຖື ເປັນ ອຸ ທາ|
"Bb" B4"Ab" EF_AG |"F""D""F""D" F8 |"F" z GBG"Gm" BDFG | z BFB"Eb" GFDC |"C" z B,G,B,"F" F3 E/F/ | %28
w: ຫອນ ບົດ ຮຽນ ສອນ ມານ|ຍາ|ຮັກ ໃໝ່ ລວງ ລໍ້ ໃຫ້ ລຸ່ມ ຫຼົງ|ຮັກ ເກົ່າ ໝັ້ນ ຄົງ ມີ ຣາ ຄາ|ຄວນ ຄ່າ ຣະ ລຶກ ນຶກ ເຖິງ|
"D""F" D8 ||"Bb""^D" z BFB BFDB, |"Gm" G,4"F" z F,B,D |"Bb" F3 B"Bb7" DB,DF |"Eb""Cm" G8 | %33
w: ກັນ...|ຟ້າ ຮ້ອງ ຝົນ ຮຳ ຍາມ ເມື່ອ ເດືອນ|ຫົກ ອຸ່ນ ອາຍ ອ້ອມ|ອົກ ທີ່ ກົກ ກະ ເດົາ ຄາວ|ນັ້ນ|
"Eb" z BFB"Gm" GFDF |"Bb" z DCF"D" DCB,G, |"Gm" z F,G,B,"F" FFDC | %36
w: ສຽງ ສັ່ງ ຍັງ ຄົງ ສະ ກິດ ເຕືອນ|ມິ ອາດ ລົບ ເລືອນ ລືມ ຄຳ ໝັ້ນ|ສື່ ເພງ ກ່ອມ ຂວັນ ນົກ ເຂົາ ຄືນ|
"Bb""Eb""Ebm""_(Solo verse B)" B,8 :|"Eb" z BFB"Gm" GFDF |"Bb" z DCF"D" DCB,G, | %39
w: ຮັງ...|ເມກ ສວ່າງ ຝົນ ຊາ ຟ້າ ເລີ່ມ ສາງ|ສ ວາດ ມິ ວາງ ຍັງ ຈຳ ໝັ້ນ|
"Gm" z F,G,B,"F" FFDC |"Bb""Eb""Ebm" B,8 || %41
w: ຫັກ ໃຈ ກັບ ຫັນ ຫວນ ຄືນ ຮັງ|ເກົ່າ...|
O"Bb""_Hawaiian Guitar ad lib...""_(Coda) ______________________________________________________________________________"[Q:1/4=55]"^E" B4[Q:1/4=60] (c/B/G/F/)[Q:1/4=50] (D/G/F/D/) | %42
w: |
"F"[Q:1/4=40] !arpeggio![F,CF]4 (F/D/[Q:1/4=50]C/B,/ D/C/[Q:1/4=40]B,/C/) | %43
w: |
"Gm"[Q:1/4=65][Q:1/4=40] !arpeggio![B,,G,B,DG]4"F"[Q:1/4=40] !arpeggio![F,,F,A,C]4 | %44
w: |
"Bb" !arpeggio!!fermata![B,,B,DFB]8!fine! |] %45
w: |

